icon-svg/aircon-window.svg

<svg xmlns="http://www.w3.org/2000/svg" viewBox="0 0 24 24"><path fill="#44739e" d="M21.353 5.355H2.647A.647.647 0 0 0 2 5.999v12a.647.647 0 0 0 .647.647h18.706a.647.647 0 0 0 .647-.647v-12a.647.647 0 0 0-.647-.644m-1.922 1.414a.244.244 0 0 1 .244-.244h1.414a.244.244 0 0 1 .243.244v.409a.244.244 0 0 1-.243.244h-1.414a.244.244 0 0 1-.244-.244Zm.252 1.593V7.97h.717v.392Zm.716.128v.391h-.716V8.49Zm-1.589-.52h.716v.392h-.716Zm0 .52h.716v.391h-.716Zm-.89-1.67h.715v.562h-.715Zm0 1.15h.715v.392h-.715Zm0 .52h.715v.391h-.715ZM3.166 6.989h13.767v.122H3.166Zm13.7.188v.445h-.077v-.445Zm-3 0v.445H13.7v-.445Zm-3.662 0v.445h-.23v-.445Zm-3.8 0v.445h-.128v-.445Zm-3.118 0v.445H3.21v-.445Zm-.12.511h13.767v.173H3.166Zm13.7.238v.388h-.077v-.388Zm-3 0v.388H13.7v-.388Zm-3.662 0v.388h-.23v-.388Zm-3.8 0v.388h-.128v-.388Zm-3.118 0v.388H3.21v-.388Zm-.12.454h13.767v.119H3.166Zm17.891 8.647H3.1v-.482h17.957Zm-13.635-.613v-.465h.153v.465Zm4.578 0v-.465h.153v.465Zm4.532 0v-.465h.153v.465Zm4.525-.6H3.1v-.482h17.957Zm-13.635-.61v-.465h.153v.465Zm4.578 0v-.465h.153v.465Zm4.532 0v-.465h.153v.465Zm4.525-.6H3.1v-.482h17.957Zm-13.635-.605v-.465h.153v.465Zm4.578 0v-.465h.153v.465Zm4.532 0v-.465h.153v.465Zm4.525-.6H3.1v-.482h17.957Zm-13.635-.614v-.5h.153v.5Zm4.578 0v-.5h.153v.5Zm4.532 0v-.5h.153v.5Zm4.525-.634H3.1v-.482h17.957Zm-13.635-.614v-.426h.153v.426Zm4.578 0v-.426h.153v.426Zm4.532 0v-.426h.153v.426Zm4.525-.558H3.1v-.48h17.957Zm.279-2.1h-.716V8.49h.716Zm0-.519h-.716v-.39h.716Zm-1.661-1.756h1.414c.091 0 .165.074.165.165v.409a.165.165 0 0 1-.165.165h-1.414a.165.165 0 0 1-.165-.165v-.409c0-.091.074-.165.165-.165"/></svg>

<?xml version="1.0" encoding="UTF-8"?>
<svg width="24px" fill="#44739e" height="24px" viewBox="0 0 24 24" version="1.1" xmlns="http://www.w3.org/2000/svg" xmlns:xlink="http://www.w3.org/1999/xlink">
            <path d="M 21.353,5.356 H 2.647 A 0.647,0.647 0 0 0 2,6 v 12 a 0.647,0.647 0 0 0 0.647,0.647 H 21.353 A 0.647,0.647 0 0 0 22,18 V 6 A 0.647,0.647 0 0 0 21.353,5.356 Z M 19.431,6.77 a 0.244,0.244 0 0 1 0.244,-0.244 h 1.414 A 0.244,0.244 0 0 1 21.332,6.77 V 7.179 A 0.244,0.244 0 0 1 21.089,7.423 H 19.675 A 0.244,0.244 0 0 1 19.431,7.179 Z m 0.252,1.593 V 7.971 H 20.4 v 0.392 z m 0.716,0.128 V 8.882 H 19.683 V 8.491 Z M 18.81,7.971 h 0.716 V 8.363 H 18.81 Z m 0,0.52 h 0.716 V 8.882 H 18.81 Z m -0.89,-1.67 h 0.715 V 7.383 H 17.92 Z m 0,1.15 h 0.715 V 8.363 H 17.92 Z m 0,0.52 h 0.715 V 8.882 H 17.92 Z M 3.166,6.99 H 16.933 V 7.112 H 3.166 Z m 13.7,0.188 V 7.623 H 16.789 V 7.178 Z m -3,0 V 7.623 H 13.7 V 7.178 Z m -3.662,0 V 7.623 H 9.974 V 7.178 Z m -3.8,0 V 7.623 H 6.276 V 7.178 Z m -3.118,0 V 7.623 H 3.21 V 7.178 Z M 3.166,7.689 H 16.933 V 7.862 H 3.166 Z m 13.7,0.238 V 8.315 H 16.789 V 7.927 Z m -3,0 V 8.315 H 13.7 V 7.927 Z m -3.662,0 V 8.315 H 9.974 V 7.927 Z m -3.8,0 V 8.315 H 6.276 V 7.927 Z m -3.118,0 V 8.315 H 3.21 V 7.927 Z M 3.166,8.381 H 16.933 V 8.5 H 3.166 Z m 17.891,8.647 H 3.1 V 16.546 H 21.057 Z M 7.422,16.415 V 15.95 h 0.153 v 0.465 z m 4.578,0 V 15.95 h 0.153 v 0.465 z m 4.532,0 V 15.95 h 0.153 v 0.465 z m 4.525,-0.6 H 3.1 V 15.333 H 21.057 Z M 7.422,15.205 V 14.74 h 0.153 v 0.465 z m 4.578,0 V 14.74 h 0.153 v 0.465 z m 4.532,0 V 14.74 h 0.153 v 0.465 z m 4.525,-0.6 H 3.1 V 14.123 H 21.057 Z M 7.422,14 V 13.535 H 7.575 V 14 Z M 12,14 v -0.465 h 0.153 V 14 Z m 4.532,0 v -0.465 h 0.153 V 14 Z m 4.525,-0.6 H 3.1 V 12.918 H 21.057 Z M 7.422,12.786 v -0.5 h 0.153 v 0.5 z m 4.578,0 v -0.5 h 0.153 v 0.5 z m 4.532,0 v -0.5 h 0.153 v 0.5 z m 4.525,-0.634 H 3.1 V 11.67 H 21.057 Z M 7.422,11.538 v -0.426 h 0.153 v 0.426 z m 4.578,0 v -0.426 h 0.153 v 0.426 z m 4.532,0 v -0.426 h 0.153 v 0.426 z M 21.057,10.98 H 3.1 V 10.5 h 17.957 z m 0.279,-2.1 H 20.62 V 8.491 h 0.716 z m 0,-0.519 H 20.62 v -0.39 h 0.716 z M 19.675,6.605 h 1.414 c 0.09141,0 0.165,0.07359 0.165,0.165 v 0.409 c 0,0.09141 -0.07359,0.165 -0.165,0.165 H 19.675 C 19.58359,7.344 19.51,7.27041 19.51,7.179 V 6.77 c 0,-0.09141 0.07359,-0.165 0.165,-0.165 z"/>

</svg>
